X:1
T:The Silver Star
T:The Silver Star
T:Horatio Richmond Palmer
T:D. K. En., 1895
T:Public Domain Courtesy of the Cyber Hymnal™
T:Public Domain Courtesy of the Cyber Hymnal™
C:Horatio Richmond Palmer
Z:Public Domain
Z:Courtesy of the Cyber Hymnal™
%%score ( 1 2 ) ( 3 4 )
L:1/8
Q:1/4=110
M:4/4
K:F
V:1 treble 
V:2 treble 
V:3 bass 
V:4 bass 
V:1
 [CF]>[CG] | [FA]2 [FA]2 ([FA][GB]) ([Ac][Bd]) | [Ac][GB][GB][GB] [GB]2 [EG]>[FA] | %3
w: 1.~On the|brow of night * there *|shines a sil- ver star, On the|
w: 2.~’Tis the|lamp of God * high *|hang- ing in the air, ’Tis the|
w: 3.~Bring your|gifts of gold, * of *|frank- in- cense and myrrh, Bring your|
 [GB]2 [GB]2 ([GB][Ac]) ([Bd][ce]) | [Bd][Ac][Ac][Ac] [Ac]2 [Ac]>[Ac] | %5
w: brow of night * there *|shines a sil- ver star, And the|
w: lamp of God * high *|hang- ing in the air, And it|
w: gifts of gold, * of *|frank- in- cense and myrrh, For the|
 [Af]2 [Af]2 [Ge]2 [GA][GA] | [Fd]2 [Fd]2 [Fc]2 [Ac][Ac] | [Af]2 [Af]2 [Ge]2 [GA]2 | %8
w: wise men gaze on its|heav- ’nly rays, Till they|find the King, Whose|
w: guides our feet thro’ the|roy- al street; There is|sweet soul- rest for|
w: King we own is on|Da- vid’s throne; Let the|ho- ly Child your|
 [Fd][Fd][Fd][Fd] [Fc]2 [EA]>[EG] | [DF]2 [DF]2 [DF]2 [DF]2 | [CF]4 z2 ||"^Refrain" c>d | %12
w: throne they sought a- far, In the|Babe of Beth- le-|hem.||
w: those who seek it there, From the|Babe of Beth- le-|hem.|Sil- ver|
w: best af- fect- ions stir; ’Tis the|Babe of Beth- le-|hem.||
 (z2 c>)d x6 | (z2 c>)c x6 | (z2 B2) c>d x2 | z2 [Ac]>[Ac] x6 | [Af]2 [Af]2 [Ge]2 [GA]>[GA] | %17
w: |||||
w: * star,|* ho-|* ly light,|* Shine|a- far, o’er the night,|
w: |||||
 [Fd]2 [Fd]2 [Fc]2 [Ac]2 | [Ff]2 [Fc]>[DB] [CA]2 [EG]>[EA] | [DF]2 [DF]2 [CF]4 |] %20
w: |||
w: Till the world shall|come where the young Child lay,|And en- ter|
w: |||
V:2
 x2 | x8 | x8 | x8 | x8 | x8 | x8 | x8 | x8 | x8 | x6 || x2 | (c6 E>G B2) | (c6 A>G F2) | c6 G>A | %15
 (c6 F>G A2) | x8 | x8 | x8 | x8 |] %20
V:3
 [F,A,]>[F,B,] | [F,C]2 [F,C]2 [F,C]2 [F,C]2 | C,[C,D,][C,E,][C,F,] [C,G,]2 [C,C]>[C,C] | %3
w: ~ ~|~ ~ ~ ~|~ ~ ~ ~ ~ ~ ~|
 [C,C]2 [C,C]2 [C,C]2 [C,C]2 | F,[F,G,][F,A,][F,B,] [F,C]2 [F,C]>[F,C] | %5
w: ~ ~ ~ ~|~ ~ ~ ~ ~ ~ ~|
 [D,D]2 [D,D]2 [A,^C]2 [A,C][A,C] | [B,D]2 B,2 [F,A,]2 [F,C][F,C] | [D,D]2 [D,D]2 [A,^C]2 [A,C]2 | %8
w: ~ ~ ~ ~ ~|~ ~ ~ ~ ~|~ ~ ~ ~|
 [B,D][B,D]B,B, [F,A,]2 [C,C]>[C,B,] | [D,A,]2 [D,A,]2 [B,,B,]2 [B,,B,]2 | [F,A,]4 z2 || z2 | %12
w: ~ ~ ~ ~ ~ ~ ~|~ ~ ~ ~|~||
 z2 [C,C]>[E,C] [G,C]2 z2 x2 | z2 [F,C]>[G,C] [A,C]2 z2 x2 | z2 [B,C]>[A,C] [G,B,]2 z2 | %15
w: Sil- ver star,|ho- ly light,|Shine a- far,|
 z2 [A,C]>[G,C] [F,C]2 [F,C]>[F,C] x2 | [D,D]2 [D,D]2 [A,^C]2 [A,C]>[A,C] | %17
w: o’er the night, * *||
 [B,D]2 B,2 [F,A,]2 [F,C]2 | [F,A,]2 [A,,F,]>[B,,F,] [C,F,]2 [C,B,]>[C,C] | %19
w: ||
 [D,A,]2 [B,,B,]2 [F,A,]4 |] %20
w: |
V:4
 x2 | x8 | C, x7 | x8 | F, x7 | x8 | x2 B,2 x4 | x8 | x2 B,B, x4 | x8 | x6 || x2 | x10 | x10 | x8 | %15
 x10 | x8 | x2 B,2 x4 | x8 | x8 |] %20

